X: 33919
T: Red Stag, The
R: jig
M: 6/8
K: Ddorian
D3FED|E3FDC|A,DE FED|E3AGE|
A,DE FED|E3EFG|AGF GFE|FECD3:|
d3dcA|c3cAG|Add dcA|c3edc|
Add dcA|c3cde|fed edc|dcAd3:|
A,DE FED|A,DE FED|_B,EF GFE|_B,EF GFE
CFG AGF|CFG AGF|AGF GFE|FECD3:|

